assets/icons/qvision/graphic_eq.svg

<svg xmlns="http://www.w3.org/2000/svg" height="24" viewBox="0 0 24 24" width="24"><path d="M0 0h24v24H0z" fill="none"/><path d="M7 18h2V6H7v12zm4 4h2V2h-2v20zm-8-8h2v-4H3v4zm12 4h2V6h-2v12zm4-8v4h2v-4h-2z"/></svg>

<svg width="24" height="24" viewBox="0 0 24 24" fill="none" xmlns="http://www.w3.org/2000/svg">
<g clip-path="url(#clip0_147_2400)">
<path d="M7 18H9V6H7V18ZM11 22H13V2H11V22ZM3 14H5V10H3V14ZM15 18H17V6H15V18ZM19 10V14H21V10H19Z" fill="#323232"/>
</g>
<defs>
<clipPath id="clip0_147_2400">
<rect width="24" height="24" fill="white"/>
</clipPath>
</defs>
</svg>
